svgs/sharp-regular/piano-keyboard.svg

<svg xmlns="http://www.w3.org/2000/svg" viewBox="0 0 576 512"><!--! Font Awesome Pro 6.6.0 by @fontawesome - https://fontawesome.com License - https://fontawesome.com/license (Commercial License) Copyright 2024 Fonticons, Inc. --><path d="M528 224l-80 0 0 64 0 32-16 0 0 80 96 0 0-176zM400 400l0-80-16 0 0-32 0-64-64 0 0 64 0 32-16 0 0 80 96 0zm-128 0l0-80-16 0 0-32 0-64-64 0 0 64 0 32-16 0 0 80 96 0zm-128 0l0-80-16 0 0-32 0-64-80 0 0 176 96 0zM528 176l0-64L48 112l0 64 80 0 64 0 64 0 64 0 64 0 64 0 80 0zm48 0l0 24 0 24 0 176 0 48-48 0L48 448 0 448l0-48L0 224l0-24 0-24 0-64L0 64l48 0 480 0 48 0 0 48 0 64z"/></svg>

<svg xmlns="http://www.w3.org/2000/svg" viewBox="0 0 576 512"><!--! Font Awesome Pro 6.5.2 by @fontawesome - https://fontawesome.com License - https://fontawesome.com/license (Commercial License) Copyright 2024 Fonticons, Inc. --><path d="M528 224H448v64 32H432v80h96V224zM400 400V320H384V288 224H320v64 32H304v80h96zm-128 0V320H256V288 224H192v64 32H176v80h96zm-128 0V320H128V288 224H48V400h96zM528 176V112H48v64h80 64 64 64 64 64 80zm48 0v24 24V400v48H528 48 0V400 224 200 176 112 64H48 528h48v48 64z"/></svg>
